configs/network-icons/polkadot.svg

<svg width="30" height="30" viewBox="0 0 30 30" fill="none" xmlns="http://www.w3.org/2000/svg">
<g clip-path="url(#clip0_16828_52964)">
<path d="M15.1033 6.29228C18.0909 6.29228 20.5128 4.8837 20.5128 3.14614C20.5128 1.40857 18.0909 0 15.1033 0C12.1158 0 9.69385 1.40857 9.69385 3.14614C9.69385 4.8837 12.1158 6.29228 15.1033 6.29228Z" fill="#E6007A"/>
<path d="M15.1033 29.9978C18.0909 29.9978 20.5128 28.5893 20.5128 26.8517C20.5128 25.1141 18.0909 23.7056 15.1033 23.7056C12.1158 23.7056 9.69385 25.1141 9.69385 26.8517C9.69385 28.5893 12.1158 29.9978 15.1033 29.9978Z" fill="#E6007A"/>
<path d="M7.56477 10.6473C9.05856 8.06006 9.04886 5.25793 7.54311 4.38856C6.03736 3.51919 3.60576 4.9118 2.11197 7.49904C0.618181 10.0863 0.627877 12.8884 2.13362 13.7578C3.63937 14.6272 6.07098 13.2345 7.56477 10.6473Z" fill="#E6007A"/>
<path d="M28.0923 22.4986C29.5861 19.9114 29.5773 17.1097 28.0725 16.2409C26.5678 15.3722 24.137 16.7653 22.6432 19.3525C21.1494 21.9397 21.1583 24.7414 22.663 25.6102C24.1678 26.479 26.5985 25.0859 28.0923 22.4986Z" fill="#E6007A"/>
<path d="M7.54409 25.6095C9.04984 24.7401 9.05953 21.938 7.56574 19.3507C6.07195 16.7635 3.64035 15.3709 2.1346 16.2403C0.628853 17.1096 0.619158 19.9118 2.11295 22.499C3.60674 25.0862 6.03834 26.4789 7.54409 25.6095Z" fill="#E6007A"/>
<path d="M28.074 13.7584C29.5787 12.8897 29.5876 10.088 28.0938 7.50076C26.6 4.91352 24.1692 3.52043 22.6645 4.38921C21.1598 5.25799 21.1509 8.05965 22.6447 10.6469C24.1385 13.2341 26.5693 14.6272 28.074 13.7584Z" fill="#E6007A"/>
</g>
<defs>
<clipPath id="clip0_16828_52964">
<rect width="28.2089" height="30" fill="white" transform="translate(1)"/>
</clipPath>
</defs>
</svg>

<svg xmlns="http://www.w3.org/2000/svg" fill="none" viewBox="0 0 30 30">
  <g fill="#E6007A" clip-path="url(#polkadot_svg__a)">
    <path d="M15.103 6.292c2.988 0 5.41-1.408 5.41-3.146C20.513 1.41 18.09 0 15.103 0s-5.41 1.409-5.41 3.146c0 1.738 2.423 3.146 5.41 3.146Zm0 23.706c2.988 0 5.41-1.409 5.41-3.146 0-1.738-2.422-3.146-5.41-3.146-2.987 0-5.41 1.408-5.41 3.146 0 1.737 2.423 3.146 5.41 3.146ZM7.565 10.647c1.494-2.587 1.484-5.39-.022-6.258-1.506-.87-3.937.523-5.431 3.11-1.494 2.587-1.484 5.39.022 6.259 1.505.87 3.937-.523 5.43-3.11Zm20.527 11.852c1.494-2.588 1.485-5.39-.02-6.258-1.504-.869-3.935.524-5.429 3.111-1.494 2.588-1.485 5.39.02 6.258 1.505.869 3.936-.524 5.43-3.111ZM7.544 25.61c1.506-.87 1.516-3.672.022-6.26-1.494-2.587-3.926-3.98-5.431-3.11-1.506.87-1.516 3.672-.022 6.259s3.925 3.98 5.431 3.11Zm20.53-11.852c1.505-.868 1.514-3.67.02-6.257-1.494-2.587-3.925-3.98-5.43-3.112-1.504.869-1.513 3.67-.02 6.258 1.495 2.587 3.925 3.98 5.43 3.111Z"/>
  </g>
  <defs>
    <clipPath id="polkadot_svg__a">
      <path fill="#fff" d="M1 0h28.209v30H1z"/>
    </clipPath>
  </defs>
</svg>
